X:1
T:Boston Harbor
M:4/4
L:1/8
K:G
 z4 z2 D2| G2 G2 F2 F2|G-AB-G D2 DD| E2 E2 C2 EE| DE DC B,2 DD| G2 G2 F2 FF|\
 GA BG D2 DD| E2 E2 C2 E2| DE DC B,2 DD| G2 G2 G4| A2 A2 A4| B3 c d2 c2|\
 B2 A2 G4|
